X: 2391
T: Balchraggan
R: march
M: 
K: Amajor
M:2/4
A>B|:"A"c4|c2 B<A|"D"f2 e2|e2 A>B|"F#m"c2 e>c|d>c B<A|"E"B4-|B2 A>B|
"A"c4|c2 B<A|"D"f2 e2|e2 A>B|"Bm"c2 e>c|"E"B>A B<c|1 "A"A4-|A2 A>B:|2 "A"A4-|A2 c>e||
|:"D"f2 a2|a2 f>e|"F#m"f2 c2|c2 A>B|"A"c2 e>c|d>c B<A|
[1 "E"B4-|B2 c>e|"D"f2 a2|a2 f>e|"F#m"f2 c2|c2 A>B|"Bm"c2 e>c|"E"B>A B<c|"A"A4-|A2 c>e:|
[2 "E"B4-|B2 A>B|"A"c2 e>c|"Bm"B>A B<c|"A/C#"(3cAA (3eAA|"D"f2 A>B|"A"c2 e>c|"E"B>A B<c|"A"A4-|A2||

